X: 42
T: No_29_Song_of_Women's_Dance_(b).krn
N: Derived from No_29_Song_of_Women's_Dance_(b).krn
%%abc-version 2.0
%%abcx-abcm2ps-target-version 5.9.1 (29 Sep 2008)
%%abc-creator hum2abc beta
%%abcx-conversion-date 2019/03/15 08:36:13
%%humdrum-veritas 4167897226
%%humdrum-veritas-data 1285701670
%%linebreak <none>
%%barnumbers 0
L: 1/8
M: 2/4
%%staves {1 2}
V: 1 clef=bass
V: 2 clef=bass
K: G
[V:1] [K:clef=bass][M:2/4]B,2B,/A,/G,/ z/ | 
[V:2] [K:clef=bass][M:2/4]z4 | 
[V:1] A,2G,2 | 
[V:2] z4 | 
[V:1] z4 ]|:  
[V:2] z4 ]|:  
[V:1] B,2B,/A,/G,/ z/ | 
[V:2] G,, z G,, z | 
[V:1] B,A,A,2 | 
[V:2] G,, zz2 | 
[V:1] G,A, A,A, | 
[V:2] G,,G,, G,, z | 
[V:1] G,G,G,2- ||  
[V:2] G,,G,, G,, z ||  
[V:1] [M:3/4]G,A,/G,/E,2z2 ||  
[V:2] [M:3/4]G,,G,, G,, z G,,G,, ||  
[V:1] [M:2/4]A,2A,G,/ z/ | 
[V:2] [M:2/4]G,, z G,, z | 
[V:1] G, z B,A, ||  
[V:2] G,, z G,, z ||  
[V:1] [M:3/4]A,A, F,F, F, z | 
[V:2] [M:3/4]G,, z G,,G,, G,, z | 
[V:1] F,2F,2z2 ||  
[V:2] G,, z G,, z G,,G,, ||  
[V:1] [M:2/4]A,2A,F, | 
[V:2] [M:2/4]G,, zz2 | 
[V:1] F,2A,2 | 
[V:2] z4 | 
[V:1] A,A, F,A, | 
[V:2] z4 | 
[V:1] A, z F,A, | 
[V:2] z4 | 
[V:1] B,2B,2 | 
[V:2] z4 | 
[V:1] B,/A,/G,/ z/ G,A,/ z/ | 
[V:2] G,, z G,,G,, | 
[V:1] G,G, E,E, | 
[V:2] G,, z G,,G,, | 
[V:1] E,2z2 :|]  
[V:2] G,, zz2 :|]  



